!!!OTL: SCHOENSTER SCHATZ MEIN AUGENTROST
!!!ARE: Europa, Mitteleuropa, Deutschland, Rheingau, Niederwald; Lahn - Tal
!!!SCT: E0692
!!!YEM: Copyright 1995, estate of Helmut Schaffrath.
**kern
*ICvox
*Ivox
*M3/4
*k[b-]
*F:
{8c
=1
8.f
16f
4.f
8g
=2
8.a
16a
4.a}
{8a
=3
8g
8a
4b-
4g
=4
4b-
4a
8r}
{8cc
=5
8cc
8a
4.dd
8cc
=6
8cc
8b-
4.b-}
{16cc
16b-
=7
8a
8a
4.cc
8a
=8
8a
8g
4g
8r}
{16a
16g
=9
8f
8dd
4cc
4a
=10
4g
4f
8r}
==
!!!AGN: Liebes - Lied, Leid, Klage
!!!ONB: ESAC (Essen Associative Code) Database: ERK2
!!!AMT: simple triple
!!!AIN: vox
!!!EED: Helmut Schaffrath
!!!EEV: 1.0
*-
